X:5705
T:Gan Ainm
R:Hornpipe
S:(Billy McComiskey)
H:
N:
D:Solo Album
Z:Adrian Scahill
M:4/4
L:1/8
K:D
dAFD GFEC|D3F Adfd|(3gfe dc BA^GB|AECE AB(3cBA|\
dAFD GFEC|D3F Adfd|gfec Acec|(3dcd ec d2 (3ABc:||\
d3e efdf |(3efe (3dcB A2EA|cAA2 cAGB|AECE AB (3cBA|\
dAFD GFEC|D3F Adfd|gfec Acec|(3dcd ec d2 (3ABc:||\
